X:10439
T:Mason's Apron
M:C
L:1/8
K:A Major
ed|cAA2 ABAF|EFAc dcBA|dBB2 BcBA|Bcde fefg|!
aAA2 ABAF|EFAc dcBA|Bcde fefa|A2cB A2:|!
ed|cAeA fAeA|cAeA fedc|dBfB gBfB|defg afed|!
cAeA fAeA|EFGc dcBA|Bcde fefa|A2cB A2:|!
